neru-light-classic/32x32/apps/workrave.svg

<?xml version="1.0" encoding="UTF-8" standalone="no"?>
<svg
   xmlns:dc="http://purl.org/dc/elements/1.1/"
   xmlns:cc="http://creativecommons.org/ns#"
   xmlns:rdf="http://www.w3.org/1999/02/22-rdf-syntax-ns#"
   xmlns:svg="http://www.w3.org/2000/svg"
   xmlns="http://www.w3.org/2000/svg"
   xmlns:sodipodi="http://sodipodi.sourceforge.net/DTD/sodipodi-0.dtd"
   xmlns:inkscape="http://www.inkscape.org/namespaces/inkscape"
   height="32"
   width="32"
   version="1"
   id="svg22"
   sodipodi:docname="workrave.svg"
   inkscape:version="0.92.1 r">
  <metadata
     id="metadata28">
    <rdf:RDF>
      <cc:Work
         rdf:about="">
        <dc:format>image/svg+xml</dc:format>
        <dc:type
           rdf:resource="http://purl.org/dc/dcmitype/StillImage" />
      </cc:Work>
    </rdf:RDF>
  </metadata>
  <defs
     id="defs26" />
  <sodipodi:namedview
     pagecolor="#ffffff"
     bordercolor="#666666"
     borderopacity="1"
     objecttolerance="10"
     gridtolerance="10"
     guidetolerance="10"
     inkscape:pageopacity="0"
     inkscape:pageshadow="2"
     inkscape:window-width="640"
     inkscape:window-height="480"
     id="namedview24"
     showgrid="false"
     inkscape:zoom="8.8125"
     inkscape:cx="-7.488172"
     inkscape:cy="16"
     inkscape:current-layer="svg22" />
  <rect
     style="opacity:1;fill:#cccccc;fill-opacity:1;fill-rule:evenodd;stroke:none;stroke-width:1.03534329;stroke-linecap:round;stroke-linejoin:bevel;stroke-miterlimit:4;stroke-dasharray:none;stroke-dashoffset:0;stroke-opacity:1"
     id="rect4497"
     width="28.203388"
     height="28.203388"
     x="1.8983059"
     y="1.8983059"
     ry="5.575182" />
  <path
     d="M 16,5.29078 A 4.5896656,4.5896656 0 0 0 12.329033,7.134449 4.5896656,4.5896656 0 0 0 8.426746,8.426746 4.5896656,4.5896656 0 0 0 7.135902,12.327503 4.5896656,4.5896656 0 0 0 5.29078,16 4.5896656,4.5896656 0 0 0 7.134449,19.672497 4.5896656,4.5896656 0 0 0 8.426746,23.572948 4.5896656,4.5896656 0 0 0 12.327503,24.864174 4.5896656,4.5896656 0 0 0 16,26.70922 4.5896656,4.5896656 0 0 0 19.670968,24.865704 4.5896656,4.5896656 0 0 0 23.572948,23.572948 4.5896656,4.5896656 0 0 0 24.864174,19.672497 4.5896656,4.5896656 0 0 0 26.70922,16 4.5896656,4.5896656 0 0 0 24.865704,12.327503 4.5896656,4.5896656 0 0 0 23.572948,8.426746 4.5896656,4.5896656 0 0 0 19.672498,7.135902 4.5896656,4.5896656 0 0 0 16,5.29078 Z"
     id="path2"
     inkscape:connector-curvature="0"
     style="fill:#ffffff;stroke-width:0.99999994" />
  <g
     id="g4526"
     transform="translate(0.00523106)">
    <rect
       id="rect4"
       x="-21.43"
       y="0.27000001"
       width="4.684"
       height="9.368"
       ry="2.342"
       rx="2.342"
       transform="matrix(-0.70711,-0.70711,-0.70711,0.70711,0,0)"
       style="fill:#d09e73" />
    <circle
       id="circle6"
       r="6"
       cx="16"
       cy="16"
       style="fill:#d09e73" />
    <rect
       id="rect8"
       x="1.1900001"
       y="22.889999"
       width="4.684"
       height="9.368"
       transform="rotate(-45)"
       rx="2.342"
       ry="2.342"
       style="fill:#d09e73" />
    <circle
       id="circle12"
       r="1.5"
       cx="13.5"
       cy="14.5"
       style="fill:#4d4d4d" />
    <circle
       id="circle16"
       r="1.5"
       cx="18.5"
       cy="14.5"
       style="fill:#4d4d4d" />
  </g>
</svg>

<svg xmlns="http://www.w3.org/2000/svg" height="32" width="32" version="1"><rect width="28.203" height="28.203" x="1.898" y="1.898" ry="5.575" fill="#ccc" fill-rule="evenodd"/><path d="M16 5.29a4.59 4.59 0 0 0-3.671 1.844 4.59 4.59 0 0 0-3.902 1.293 4.59 4.59 0 0 0-1.291 3.9A4.59 4.59 0 0 0 5.29 16a4.59 4.59 0 0 0 1.843 3.672 4.59 4.59 0 0 0 1.293 3.9 4.59 4.59 0 0 0 3.9 1.292A4.59 4.59 0 0 0 16 26.71a4.59 4.59 0 0 0 3.671-1.843 4.59 4.59 0 0 0 3.902-1.293 4.59 4.59 0 0 0 1.291-3.9A4.59 4.59 0 0 0 26.71 16a4.59 4.59 0 0 0-1.843-3.672 4.59 4.59 0 0 0-1.293-3.901 4.59 4.59 0 0 0-3.9-1.291A4.59 4.59 0 0 0 16 5.29z" fill="#fff"/><g transform="translate(.005)"><rect x="-21.43" y=".27" width="4.684" height="9.368" ry="2.342" rx="2.342" transform="scale(-1 1) rotate(-45)" fill="#d09e73"/><circle r="6" cx="16" cy="16" fill="#d09e73"/><rect x="1.19" y="22.89" width="4.684" height="9.368" transform="rotate(-45)" rx="2.342" ry="2.342" fill="#d09e73"/><circle r="1.5" cx="13.5" cy="14.5" fill="#4d4d4d"/><circle r="1.5" cx="18.5" cy="14.5" fill="#4d4d4d"/></g></svg>
